src/components/common/icons/share.svg

<svg height="40" viewBox="0 0 41 40" width="41" xmlns="http://www.w3.org/2000/svg"><path d="m34.1472923 26.7375231c-2.0079231 0-3.8187692.8351538-5.1094615 2.1743077l-13.427077-6.72c.0597693-.3683077.092077-.7446923.092077-1.1307693 0-.3844615-.0323077-.7624615-.092077-1.1323846l13.4319231-6.7119231c1.2906923 1.3375385 3.0999231 2.1694616 5.1046154 2.1694616 3.9173077 0 7.0947692-3.1758462 7.0947692-7.09315386 0-3.92053846-3.1774615-7.09638462-7.0947692-7.09638462s-7.0963846 3.17584616-7.0963846 7.09638462c0 .378.0323077.75276923.0904615 1.11461538l-13.44 6.71838458c-1.2906923-1.3310769-3.0934615-2.1581538-5.09492305-2.1581538-3.9156923 0-7.09153846 3.1758461-7.09153846 7.0931538 0 3.9189231 3.17584616 7.0947693 7.09153846 7.0947693 2.00146155 0 3.80746155-.8303077 5.09653845-2.1597693l13.4367692 6.7264616c-.0565384.3618461-.0888461.7317692-.0888461 1.1097692 0 3.9156923 3.1790769 7.0931539 7.0963846 7.0931539s7.0947692-3.1774616 7.0947692-7.0931539c0-3.9189231-3.1774615-7.0947692-7.0947692-7.0947692m0-21.28269233c1.5653077 0 2.8382308 1.27130769 2.8382308 2.83823077 0 1.56369231-1.2729231 2.83661536-2.8382308 2.83661536s-2.8382308-1.27292305-2.8382308-2.83661536c0-1.56692308 1.2729231-2.83823077 2.8382308-2.83823077m-25.54084615 18.44446153c-1.56207692 0-2.835-1.2729231-2.835-2.8382308 0-1.5636923 1.27292308-2.8382307 2.835-2.8382307 1.56692305 0 2.83984615 1.2745384 2.83984615 2.8382307 0 1.5653077-1.2729231 2.8382308-2.83984615 2.8382308m25.54084615 12.768c-1.5653077 0-2.8382308-1.2729231-2.8382308-2.835 0-1.5653077 1.2729231-2.8382308 2.8382308-2.8382308s2.8382308 1.2729231 2.8382308 2.8382308c0 1.5620769-1.2729231 2.835-2.8382308 2.835" fill="#010202" fill-rule="evenodd" transform="translate(-1 -1)"/></svg>

<?xml version="1.0" encoding="UTF-8"?>
<svg width="41px" height="40px" viewBox="0 0 41 40" version="1.1" xmlns="http://www.w3.org/2000/svg" xmlns:xlink="http://www.w3.org/1999/xlink">
    <!-- Generator: Sketch 52.5 (67469) - http://www.bohemiancoding.com/sketch -->
    <title>Icons/.share</title>
    <desc>Created with Sketch.</desc>
    <g id="Vapaaehtoisalusta-Layouts" stroke="none" stroke-width="1" fill="none" fill-rule="evenodd">
        <g id="HKI-Ikonit" transform="translate(-180.000000, -919.000000)" fill="#010202">
            <g id="Icons/.share" transform="translate(179.000000, 918.000000)">
                <path d="M34.1472923,26.7375231 C32.1393692,26.7375231 30.3285231,27.5726769 29.0378308,28.9118308 L15.6107538,22.1918308 C15.6705231,21.8235231 15.7028308,21.4471385 15.7028308,21.0610615 C15.7028308,20.6766 15.6705231,20.2986 15.6107538,19.9286769 L29.0426769,13.2167538 C30.3333692,14.5542923 32.1426,15.3862154 34.1472923,15.3862154 C38.0646,15.3862154 41.2420615,12.2103692 41.2420615,8.29306154 C41.2420615,4.37252308 38.0646,1.19667692 34.1472923,1.19667692 C30.2299846,1.19667692 27.0509077,4.37252308 27.0509077,8.29306154 C27.0509077,8.67106154 27.0832154,9.04583077 27.1413692,9.40767692 L13.7013692,16.1260615 C12.4106769,14.7949846 10.6079077,13.9679077 8.60644615,13.9679077 C4.69075385,13.9679077 1.51490769,17.1437538 1.51490769,21.0610615 C1.51490769,24.9799846 4.69075385,28.1558308 8.60644615,28.1558308 C10.6079077,28.1558308 12.4139077,27.3255231 13.7029846,25.9960615 L27.1397538,32.7225231 C27.0832154,33.0843692 27.0509077,33.4542923 27.0509077,33.8322923 C27.0509077,37.7479846 30.2299846,40.9254462 34.1472923,40.9254462 C38.0646,40.9254462 41.2420615,37.7479846 41.2420615,33.8322923 C41.2420615,29.9133692 38.0646,26.7375231 34.1472923,26.7375231 M34.1472923,5.45483077 C35.7126,5.45483077 36.9855231,6.72613846 36.9855231,8.29306154 C36.9855231,9.85675385 35.7126,11.1296769 34.1472923,11.1296769 C32.5819846,11.1296769 31.3090615,9.85675385 31.3090615,8.29306154 C31.3090615,6.72613846 32.5819846,5.45483077 34.1472923,5.45483077 M8.60644615,23.8992923 C7.04436923,23.8992923 5.77144615,22.6263692 5.77144615,21.0610615 C5.77144615,19.4973692 7.04436923,18.2228308 8.60644615,18.2228308 C10.1733692,18.2228308 11.4462923,19.4973692 11.4462923,21.0610615 C11.4462923,22.6263692 10.1733692,23.8992923 8.60644615,23.8992923 M34.1472923,36.6672923 C32.5819846,36.6672923 31.3090615,35.3943692 31.3090615,33.8322923 C31.3090615,32.2669846 32.5819846,30.9940615 34.1472923,30.9940615 C35.7126,30.9940615 36.9855231,32.2669846 36.9855231,33.8322923 C36.9855231,35.3943692 35.7126,36.6672923 34.1472923,36.6672923" id="Fill-8"></path>
            </g>
        </g>
    </g>
</svg>
